!! George Gerswhin, "Who Cares?" from
!! "Bumper Book of George Gerswhin,"
!! London: Chappell Music Ltd., 1987; pp.419-421
**kern
*M2/2
*MM[Brightly]
!! Verse
!! Freely
=1
4dd
4cc
4dd
4cc
=2
4b-
2.a-
=3
4b-
4a-
4b-
4a-
=4
2g
2an
=5
4c
[2.c
=6
1c]
=7
4dd
4cc
4dd
4cc
=8
4b-
2.a-
=9
4b-
4a-
4b-
4a-
=10
2g
2an
=11
4c
[2.c
=12
2.c]
4r
!! page 420
=13
4e
4f#
4d#
4e
=14
4f#
4g
4e
4f#
=15
4g
4a
4f#
4g
=16
4a
4b
4g
4a
=17
4b
4cc
4a
4b
=18
4cc
4dd
4b
4cc
=19
[1dd
=20
1dd]
=21
4dd
4cc
4dd
4cc
=22
2b-
2a-
=23
4g
[2.g
=24
1g]
=25
4dd
4cc
4dd
4cc
=26
2b-
2a-
=27
4g
[2.g
=28
2g]
!! Refrain
2g
=29
1b
=30
4r
2b
4a
=31
1cc
=32
4r
2cc
4b
=33
1f
=34
4r
2f
4e
=35
[1g
!! page 421
=36
2g]
4r
4f
=37
2e
4f
[4g
=38
4g]
2b
4a
=39
2.g
[4g
=40
1g]
=41
2e
4f
[4g
=42
4g]
2dd
4cc
=43
2ee-
2ee-
=44
2ee-
2g
=45
1b
=46
4r
2b
4a
=47
1cc
=48
4r
2cc
4b
=49
4dd
4r
[2dd
=50
4dd]
2dd
4cc
=51
1ee
=52
4r
4cc
4dd
4dd#
=53
2.ee
[4cc
=54
2cc]
2a
=55
[1g
=56
2g]
2a
=57
2.cc
[4g
=58
2g]
2e
!! First ending.
=59
[1c
=60
4c]
4r
!! Refrain
2g
=29
1b
=30
4r
2b
4a
=31
1cc
=32
4r
2cc
4b
=33
1f
=34
4r
2f
4e
=35
[1g
!! page 421
=36
2g]
4r
4f
=37
2e
4f
[4g
=38
4g]
2b
4a
=39
2.g
[4g
=40
1g]
=41
2e
4f
[4g
=42
4g]
2dd
4cc
=43
2ee-
2ee-
=44
2ee-
2g
=45
1b
=46
4r
2b
4a
=47
1cc
=48
4r
2cc
4b
=49
4dd
4r
[2dd
=50
4dd]
2dd
4cc
=51
1ee
=52
4r
4cc
4dd
4dd#
=53
2.ee
[4cc
=54
2cc]
2a
=55
[1g
=56
2g]
2a
=57
2.cc
[4g
=58
2g]
2ee
!! Second ending.
=59
[1cc
=60
2cc_
4cc]
4r
====
*-
